X: 1
T: Valse des Pastouriaux
C: Jacky Molard
R: waltz
Z: 2009 John Chambers <jc:trillian.mit.edu>
B: "The Waltz Book 3" p.62
D: "Pennou Skoulm" 1990
D: Fresh Fish "Turning of the Tide"
D: David Surette "Back Roads"
M: 3/4
L: 1/8
K: G
D2 !Segno!\
|: "G"G2 GA Bc | d3 cBG | "Am"c2 cB AG | "D"A2 FA DF \
|  "G"G2 GA Bc | d3 cBG | "Am"cB AG FG |1 "D"A4 D2 :|2 "D"A3 gfd ||
|: "C"ed e2 "D"f2 | "G"g3 dBG | "Am"cB AG FG | "D"A3 gfd \
|  "C"ed eg "D"(3fga | "G"g3 dBG | "Am"cB AG FG |1 "D"A3 gfd :|2 "D"(3ABA FA DF !d.S.!|] "G"HG2 |]
